icons/css-map.svg

<svg version="1.1" viewBox="0 0 24 24" xmlns="http://www.w3.org/2000/svg"><g transform="translate(-.23339 -.5)"><path d="m18 8v2h2v10h-10v-2h-2v4h14v-14z" style="fill:#7daea3"/><path d="m4.6759 3-.48842 2.5097h10.212l-.33062 1.6231h-10.204l-.49593 2.5022h10.212l-.57107 2.8629-4.1177 1.3601-3.5692-1.3601.24797-1.2323h-2.5097l-.59362 3.0056 5.8986 2.2542 6.8003-2.2542.9017-4.531.18034-.90921 1.1572-5.831z" style="fill:#7daea3"/></g></svg>

<svg viewBox="0 0 24 24" xmlns="http://www.w3.org/2000/svg"><path d="M18 8v2h2v10H10v-2H8v4h14V8z" style="fill:#42a5f5" transform="translate(-.233 -.5)"/><path d="m4.676 3-.489 2.51H14.4l-.33 1.623H3.865l-.496 2.502H13.58l-.571 2.863-4.118 1.36-3.569-1.36.248-1.232H3.06l-.593 3.005 5.898 2.254 6.8-2.254.902-4.53.18-.91L17.407 3z" style="fill:#42a5f5" transform="translate(-.233 -.5)"/></svg>
